img/icons/design/paint-roller.svg

<svg xmlns="http://www.w3.org/2000/svg" viewBox="0 0 40 48"><g data-name="Layer 2"><path data-name="Paint Roller" d="M35 6h-3V0H0v16h32V8h3a3 3 0 013 3v4.94a3 3 0 01-2.21 2.9l-16.11 4.39A5 5 0 0016 28.05V30h-4v13a5 5 0 0010 0V30h-4v-1.95a3 3 0 012.21-2.89l16.11-4.39A5 5 0 0040 15.94V11a5 5 0 00-5-5zm-5 8H2V2h28zM20 43a3 3 0 01-6 0V32h6z" fill="#231f20"/></g></svg>

<svg xmlns="http://www.w3.org/2000/svg" viewBox="0 0 40 48"><defs><style>.cls-1{fill:#231f20;}</style></defs><title>Paint Roller</title><g id="Layer_2" data-name="Layer 2"><g id="Icons"><g id="Design"><path id="Paint_Roller" data-name="Paint Roller" class="cls-1" d="M35,6H32V0H0V16H32V8h3a3,3,0,0,1,3,3v4.94a3,3,0,0,1-2.21,2.9L19.68,23.23A5,5,0,0,0,16,28.05V30H12V43a5,5,0,0,0,10,0V30H18V28.05a3,3,0,0,1,2.21-2.89l16.11-4.39A5,5,0,0,0,40,15.94V11A5,5,0,0,0,35,6Zm-5,8H2V2H30ZM20,43a3,3,0,0,1-6,0V32h6Z"/></g></g></g></svg>
